svg/sport/tennis.svg

<?xml version="1.0" encoding="UTF-8" standalone="no"?>
<!-- Created with Inkscape (http://www.inkscape.org/) -->

<svg:svg
   xmlns:dc="http://purl.org/dc/elements/1.1/"
   xmlns:cc="http://creativecommons.org/ns#"
   xmlns:rdf="http://www.w3.org/1999/02/22-rdf-syntax-ns#"
   xmlns:svg="http://www.w3.org/2000/svg"
   xmlns:sodipodi="http://sodipodi.sourceforge.net/DTD/sodipodi-0.dtd"
   xmlns:inkscape="http://www.inkscape.org/namespaces/inkscape"
   version="1.0"
   width="580"
   height="580"
   id="svg2"
   inkscape:version="0.48.1 r9760"
   sodipodi:docname="tennis.svg">
  <sodipodi:namedview
     pagecolor="#ffffff"
     bordercolor="#666666"
     borderopacity="1"
     objecttolerance="10"
     gridtolerance="10"
     guidetolerance="10"
     inkscape:pageopacity="0"
     inkscape:pageshadow="2"
     inkscape:window-width="640"
     inkscape:window-height="480"
     id="namedview11"
     showgrid="false"
     inkscape:zoom="0.45172414"
     inkscape:cx="290"
     inkscape:cy="290"
     inkscape:window-x="0"
     inkscape:window-y="0"
     inkscape:window-maximized="0"
     inkscape:current-layer="svg2" />
  <svg:metadata
     id="metadata2975">
    <RDF>
      <Work
         about="">
        <format>image/svg+xml</format>
        <type
           resource="http://purl.org/dc/dcmitype/StillImage" />
        <license
           resource="http://web.resource.org/cc/PublicDomain" />
        <language>en</language>
      </Work>
    </RDF>
    <rdf:RDF>
      <cc:Work
         rdf:about="">
        <dc:format>image/svg+xml</dc:format>
        <dc:type
           rdf:resource="http://purl.org/dc/dcmitype/StillImage" />
      </cc:Work>
    </rdf:RDF>
  </svg:metadata>
  <svg:defs
     id="defs4" />
  <svg:g
     id="g1327">
    <svg:path
       d="M 66.275,1.768 C 24.94,1.768 1.704,23.139 1.704,66.804 l 0,450.123 c 0,40.844 20.896,62.229 62.192,62.229 l 452.024,0 c 41.307,0 62.229,-20.314 62.229,-62.229 l 0,-450.123 c 0,-42.601 -20.922,-65.036 -63.521,-65.036 -0.004,0 -448.495,-0.143 -448.353,0 z"
       style="fill:#111111;stroke:#eeeeee;stroke-width:3.40799999"
       id="path1329"
       inkscape:connector-curvature="0" />
  </svg:g>
  <svg:circle
     cx="171.591"
     cy="397.92999"
     r="50.546001"
     style="fill:#ffffff"
     id="circle2441"
     sodipodi:cx="171.591"
     sodipodi:cy="397.92999"
     sodipodi:rx="50.546001"
     sodipodi:ry="50.546001" />
  <svg:path
     d="M 285.113,104.116 C 231.611,50.615 157.245,39.652 111.872,83.61 c -49.437,47.896 -32.996,119.739 20.506,173.241 41.901,41.901 91.901,63.271 137.089,45.097 18.605,6.366 50.105,19.328 80.532,41.943 -1.016,4.799 0.331,9.996 4.058,13.723 l 90.51,90.51 c 5.857,5.858 15.355,5.858 21.213,10e-4 l 10.606,-10.606 c 5.857,-5.858 5.857,-15.355 0,-21.214 l -90.51,-90.509 c -3.727,-3.727 -8.923,-5.072 -13.722,-4.058 -22.709,-30.555 -35.684,-62.186 -42.022,-80.761 17.662,-44.908 -3.277,-95.118 -45.019,-136.861 z m 58.886,211.623 c -19.857,-10.854 -38.697,-19.558 -55.349,-26.429 5.108,-4.233 10.157,-8.811 15.132,-13.786 4.976,-4.975 9.55,-10.033 13.776,-15.159 6.876,16.658 15.582,35.506 26.441,55.374 z"
     style="fill:#ffffff"
     id="path2443"
     inkscape:connector-curvature="0" />
</svg:svg>

<?xml version="1.0" encoding="UTF-8" standalone="no"?>
<!-- Created with Inkscape (http://www.inkscape.org/) -->
<svg
   xmlns:svg="http://www.w3.org/2000/svg"
   xmlns="http://www.w3.org/2000/svg"
   version="1.0"
   width="580"
   height="580"
   id="svg2">
  <metadata
     id="metadata2975">
    <rdf:RDF>
      <cc:Work
         rdf:about="">
        <dc:format>image/svg+xml</dc:format>
        <dc:type
           rdf:resource="http://purl.org/dc/dcmitype/StillImage" />
			  <cc:license
           rdf:resource="http://web.resource.org/cc/PublicDomain" />
        <dc:language>en</dc:language>
      </cc:Work>
    </rdf:RDF>
  </metadata>
  <defs
     id="defs4" />
  <g
     id="layer1">
    <g
       id="g2450">
			<g
   id="g1327">
				<path
   d="M 66.275,1.768 C 24.94,1.768 1.704,23.139 1.704,66.804 L 1.704,516.927 C 1.704,557.771 22.6,579.156 63.896,579.156 L 515.92,579.156 C 557.227,579.156 578.149,558.842 578.149,516.927 L 578.149,66.804 C 578.149,24.203 557.227,1.768 514.628,1.768 C 514.624,1.768 66.133,1.625 66.275,1.768 z "
   style="fill:#111;stroke:#eee;stroke-width:3.40799999"
   id="path1329" />

			</g>

			<circle
   cx="171.591"
   cy="397.92999"
   r="50.546001"
   style="fill:white;"
   id="circle2441" />
 
			<path
   d="M 285.113,104.116 C 231.611,50.615 157.245,39.652 111.872,83.61 C 62.435,131.506 78.876,203.349 132.378,256.851 C 174.279,298.752 224.279,320.122 269.467,301.948 C 288.072,308.314 319.572,321.276 349.999,343.891 C 348.983,348.69 350.33,353.887 354.057,357.614 L 444.567,448.124 C 450.424,453.982 459.922,453.982 465.78,448.125 L 476.386,437.519 C 482.243,431.661 482.243,422.164 476.386,416.305 L 385.876,325.796 C 382.149,322.069 376.953,320.724 372.154,321.738 C 349.445,291.183 336.47,259.552 330.132,240.977 C 347.794,196.069 326.855,145.859 285.113,104.116 z M 343.999,315.739 C 324.142,304.885 305.302,296.181 288.65,289.31 C 293.758,285.077 298.807,280.499 303.782,275.524 C 308.758,270.549 313.332,265.491 317.558,260.365 C 324.434,277.023 333.14,295.871 343.999,315.739 z "
   style="fill:white;"
   id="path2443" />

		</g>
  </g>
</svg>
